Sources/FrostedUI/Resources/Icons.xcassets/discordFilled20.imageset/discord-filled-20.svg

<svg width="20" height="20" viewBox="0 0 20 20" fill="none" xmlns="http://www.w3.org/2000/svg" data-fui-icon="true">
  <path
    d="M12.5813 3.01562C13.8875 3.23779 15.1591 3.63121 16.3635 4.18555C18.4385 7.23549 19.4698 10.6755 19.0891 14.6445C17.687 15.6866 16.116 16.4784 14.4465 16.9844C14.0706 16.4773 13.7386 15.9387 13.4534 15.375C13.9967 15.1709 14.5213 14.9194 15.0208 14.623C14.891 14.5346 14.7625 14.4359 14.637 14.333C13.1864 15.0187 11.6032 15.374 10.0002 15.374C8.39702 15.374 6.81331 15.0188 5.36255 14.333C5.23857 14.4287 5.10995 14.5274 4.97876 14.623C5.47731 14.9189 6.00084 15.1704 6.54321 15.374C6.25769 15.9378 5.92553 16.4767 5.55005 16.9844C3.88202 16.4763 2.31318 15.6837 0.911377 14.6426C0.587022 11.2202 1.23557 7.74853 3.62915 4.18848C4.83483 3.63404 6.10733 3.23966 7.41431 3.01562C7.59295 3.33683 7.75458 3.66758 7.89868 4.00586C9.29001 3.79509 10.7056 3.79509 12.0969 4.00586C12.241 3.66754 12.4026 3.33678 12.5813 3.01562ZM6.95142 8.85156C6.02445 8.85168 5.30317 9.68384 5.30298 10.6982C5.30298 11.7129 6.0503 12.538 6.95435 12.5381C7.87577 12.5381 8.58784 11.713 8.60376 10.6982C8.61939 9.68376 7.87848 8.85156 6.95142 8.85156ZM13.0452 8.85156C12.1167 8.85171 11.3959 9.68385 11.3958 10.6982C11.3958 11.7129 12.1397 12.5379 13.0452 12.5381C13.9666 12.5381 14.6778 11.713 14.6936 10.6982C14.7093 9.68376 13.9737 8.85156 13.0452 8.85156Z"
    fill="currentColor"
  />
</svg>

<svg xmlns="http://www.w3.org/2000/svg" width="20" height="20" fill="none" data-fui-icon="true" viewBox="0 0 20 20"><path fill="currentColor" d="M12.581 3.016c1.306.222 2.578.615 3.782 1.17 2.076 3.05 3.107 6.49 2.726 10.459a15.2 15.2 0 0 1-4.642 2.34 11 11 0 0 1-.994-1.61 10 10 0 0 0 1.568-.752 6 6 0 0 1-.384-.29 10.85 10.85 0 0 1-9.274 0q-.187.145-.384.29a10 10 0 0 0 1.564.751 11 11 0 0 1-.993 1.61 15.2 15.2 0 0 1-4.639-2.341C.587 11.22 1.236 7.749 3.63 4.188a15.2 15.2 0 0 1 3.785-1.172q.268.482.485.99c1.391-.21 2.807-.21 4.198 0q.216-.509.484-.99m-5.63 5.836c-.927 0-1.648.832-1.648 1.846s.747 1.84 1.651 1.84c.922 0 1.634-.825 1.65-1.84.015-1.014-.726-1.846-1.653-1.846m6.094 0c-.928 0-1.65.832-1.65 1.846s.745 1.84 1.65 1.84c.922 0 1.633-.825 1.649-1.84.015-1.014-.72-1.846-1.649-1.846"/></svg>
